docs/img/logo_welbex.svg

<svg width="140" height="24" viewBox="0 0 140 24" fill="none" xmlns="http://www.w3.org/2000/svg">
<path fill-rule="evenodd" clip-rule="evenodd" d="M45.0018 5L51.2891 17.5571L50.4983 19.1196L43.1697 5H45.0018ZM65.3871 5L58.1163 19.1196L50.4598 5H52.2341L58.1163 16.051C58.412 15.4861 58.7463 14.8367 59.1191 14.1025C59.492 13.3682 59.8681 12.6121 60.2474 11.8339C60.6267 11.0557 61.0028 10.287 61.3756 9.52769C61.7484 8.76837 62.086 8.07494 62.3881 7.4474C62.6903 6.81986 62.9442 6.28646 63.1499 5.84718C63.3556 5.4079 63.4906 5.12551 63.5549 5H65.3871ZM79.2619 6.37431V5H69.9275V19.1384H79.2619V17.7642H71.3547V12.7752H77.9505V11.4009H71.3547V6.37431H79.2619ZM83.4167 19.1384V5H84.8438V17.7642H92.7511V19.1384H83.4167ZM96.9058 5V19.1384H103.829C103.932 19.1384 104.161 19.1039 104.514 19.0349C104.868 18.9658 105.25 18.8121 105.662 18.5737C105.855 18.4607 106.057 18.3132 106.269 18.1313C106.481 17.9492 106.671 17.7265 106.838 17.4629C107.005 17.1993 107.143 16.8887 107.253 16.5311C107.362 16.1733 107.417 15.756 107.417 15.2791C107.417 14.7394 107.346 14.2687 107.205 13.8671C107.063 13.4655 106.883 13.1204 106.665 12.8317C106.446 12.543 106.198 12.3108 105.922 12.1351C105.646 11.9594 105.366 11.8213 105.083 11.7209C105.366 11.4448 105.61 11.0652 105.816 10.582C106.022 10.0988 106.124 9.51828 106.124 8.84053C106.124 8.3385 106.07 7.90551 105.961 7.54153C105.851 7.17756 105.713 6.86379 105.546 6.60023C105.379 6.33666 105.192 6.11702 104.987 5.94131C104.781 5.7656 104.582 5.62126 104.389 5.50831C104.17 5.3828 103.961 5.28553 103.762 5.2165C103.563 5.14747 103.383 5.09727 103.222 5.06589C103.061 5.03451 102.929 5.01569 102.827 5.00941C102.724 5.00314 102.666 5 102.653 5H96.9058ZM103.791 17.7642C103.842 17.7642 103.984 17.7422 104.215 17.6982C104.447 17.6543 104.694 17.5508 104.958 17.3877C105.221 17.2244 105.456 16.9766 105.662 16.6439C105.867 16.3114 105.97 15.8564 105.97 15.2791C105.97 14.7017 105.867 14.2468 105.662 13.9142C105.456 13.5816 105.221 13.3306 104.958 13.1611C104.694 12.9917 104.443 12.885 104.206 12.8411C103.968 12.7972 103.823 12.7752 103.772 12.7752H98.333V17.7642H103.791ZM103.068 11.3256C102.843 11.3758 102.704 11.4009 102.653 11.4009H98.333V6.37431H102.653C102.679 6.37431 102.801 6.39313 103.019 6.43078C103.238 6.46844 103.476 6.56571 103.733 6.72259C103.99 6.87948 104.225 7.12422 104.437 7.45681C104.649 7.78941 104.755 8.25065 104.755 8.84053C104.755 9.41787 104.656 9.87598 104.456 10.2148C104.257 10.5537 104.032 10.811 103.781 10.9867C103.531 11.1624 103.293 11.2754 103.068 11.3256ZM121.639 5V6.37431H113.731V11.4009H120.327V12.7752H113.731V17.7642H121.639V19.1384H112.304V5H121.639ZM132.331 13.1141L137.153 19.1384H139.043L133.431 12.0598L139.043 5H137.153L132.331 11.0244L127.78 5H125.639L131.251 12.0598L125.639 19.1384H127.78L132.331 13.1141Z" fill="#E4E5EA"/>
<g clip-path="url(#clip0_551_4487)">
<path fill-rule="evenodd" clip-rule="evenodd" d="M24.5946 0H0V12.7841H1.3208V1.28886H23.2738V5.52746H21.0842V5.53671H21.0684C21.0096 5.65146 20.8861 5.90965 20.698 6.31127C20.5098 6.7129 20.2776 7.20058 20.0012 7.77434C19.7249 8.34809 19.4162 8.98207 19.0752 9.67634C18.7342 10.3706 18.3901 11.0734 18.0433 11.7848C17.6964 12.4963 17.3524 13.1876 17.0114 13.859C16.6704 14.5302 16.3647 15.1241 16.0941 15.6404L10.7143 5.53671H9.09151L16.0941 18.446L22.1009 6.7853H24.5927V6.77176H24.5946V0ZM0 17.1961H0.00609518V17.1819H8.47042L2.42401 5.53671H4.0997L9.84995 17.0175L9.1268 18.446L9.1157 18.4247V18.4398H1.3208V22.7111H23.2738V11.1838H24.5946V24H0V17.1961ZM33.6949 24V0H35.0517V24H33.6949Z" fill="#E4E5EA"/>
</g>
<defs>
<clipPath id="clip0_551_4487">
<rect width="35" height="24" fill="white"/>
</clipPath>
</defs>
</svg>

<svg width="140" height="24" fill="none" xmlns="http://www.w3.org/2000/svg"><path fill-rule="evenodd" clip-rule="evenodd" d="M45.002 5l6.287 12.557-.79 1.563L43.168 5h1.833zm20.385 0l-7.27 14.12L50.46 5h1.774l5.882 11.051a178.757 178.757 0 002.131-4.217c.38-.778.756-1.547 1.129-2.306.372-.76.71-1.453 1.012-2.08.302-.628.556-1.162.762-1.6.206-.44.34-.722.405-.848h1.832zm13.875 1.374V5h-9.335v14.138h9.335v-1.374h-7.907v-4.989h6.596v-1.374h-6.596V6.374h7.907zm4.155 12.764V5h1.427v12.764h7.907v1.374h-9.334zM96.906 5v14.138h6.923c.103 0 .332-.034.685-.103.354-.07.736-.223 1.148-.461.193-.113.395-.26.607-.443a2.95 2.95 0 00.569-.668 3.85 3.85 0 00.415-.932 4.31 4.31 0 00.164-1.252c0-.54-.071-1.01-.212-1.412a3.817 3.817 0 00-.54-1.035 2.868 2.868 0 00-.743-.697 4.144 4.144 0 00-.839-.414c.283-.276.527-.656.733-1.139.206-.483.308-1.064.308-1.741 0-.502-.054-.935-.163-1.3a3.815 3.815 0 00-.415-.94 2.912 2.912 0 00-.559-.66 3.728 3.728 0 00-1.225-.725 4.01 4.01 0 00-.54-.15 3.177 3.177 0 00-.569-.066h-5.747zm6.885 12.764c.051 0 .193-.022.424-.066.232-.044.479-.147.743-.31.263-.164.498-.411.704-.744.205-.333.308-.788.308-1.365s-.103-1.032-.308-1.365c-.206-.332-.441-.583-.704-.753a2.132 2.132 0 00-.752-.32 3.745 3.745 0 00-.434-.066h-5.439v4.99h5.458zm-.723-6.438c-.225.05-.364.075-.415.075h-4.32V6.374h4.32c.026 0 .148.02.366.057.219.037.457.135.714.292.257.156.492.401.704.734.212.332.318.794.318 1.384 0 .577-.099 1.035-.299 1.374-.199.339-.424.596-.675.772a2.06 2.06 0 01-.713.339zM121.639 5v1.374h-7.908v5.027h6.596v1.374h-6.596v4.99h7.908v1.373h-9.335V5h9.335zm10.692 8.114l4.822 6.024h1.89l-5.612-7.078L139.043 5h-1.89l-4.822 6.024L127.78 5h-2.141l5.612 7.06-5.612 7.078h2.141l4.551-6.024z" fill="#E4E5EA"/><g clip-path="url(#clip0_551_4487)"><path fill-rule="evenodd" clip-rule="evenodd" d="M24.595 0H0v12.784h1.32V1.29h21.954v4.238h-2.19v.01h-.016a34.92 34.92 0 00-.37.774 251.657 251.657 0 01-1.623 3.365 790.01 790.01 0 00-1.032 2.109 160.12 160.12 0 01-1.95 3.856L10.715 5.536H9.092l7.002 12.909 6.007-11.66h2.492v-.014h.002V0zM0 17.196h.006v-.014H8.47L2.424 5.537H4.1l5.75 11.48-.723 1.429-.011-.021v.015H1.32v4.271h21.953V11.184h1.32V24H0v-6.804zM33.695 24V0h1.357v24h-1.357z" fill="#E4E5EA"/></g><defs><clipPath id="clip0_551_4487"><path fill="#fff" d="M0 0h35v24H0z"/></clipPath></defs></svg>
